X: 1
T: Chloe's Passion
C: Dr Angus MacDonald
R: slipjig
Z: 2013 John Chambers <jc:trillian.mit.edu>
B: Christine Martin "Ho-Ro-Gheallaidh" "Session Tunes for Scottish Fiddlers" v.3 2008
M: 9/8
L: 1/8
K: Edor
|: "Em"Bde    gaf     gee | "Em"Bde "C"gee  "D"fdd |\
   "Em"Bde    gaf     gee |  "D"fdd    agf "Em"gee :|
|: "Em"BBB    gfe  "D"gaa | "Em"BBB "C"gfe  "D"fdd |\
   "Em"BBB    gfe  "D"gaa |  "D"fdd    agf "Em"gee :|
|: "Em"BBB    GBB  "D"AAA | "Em"BBB    GBe     Beg |\
    "D"fde    faf "Em"gee |  "D"fdd    agf "Em"gee :|
|: "Em"fge    edB     eee |  "D"fdd    dBA "Bm"BBB |\
[1 "Em"fge    edB     ege |  "D"fdd    agf "Em"gee :|\
[2 "Em"ggg "D"fga "Em"gee |  "D"ABd    fdA "Bm"BBB |]
